X: 30
T:Kitty O'Niel
% Nottingham Music Database
S:Nan F-W
M:4/4
L:1/8
R:Hornpipe
K:A
(3efg|"A"a2g2 a2A2|"D"fedf "A"e2cA|"E7"B2^A2 B2E2|"A"EA"E7"GB "A"Aceg|
"A"a2g2 a2A2|"D"fedf "A"e2cA|"E7"B2^A2 B2E2|"A"EA"E7"GB "A"A4|
"A"c2a2 c2cd|"Bm"B2b2 B2Bc|"D"defg a2gf|"E7"edcB "A"c2A2|
"A"c2a2 c2cd|"Bm"B2b2 B2Bc|"D"dcde fgaf|"E7"(3efe(3dcB "A"A2:|<end>
<start>
